X:1
T: The Birth of Seven Peeps
L:1/4
M: 2/2
C: David Kimdon
K:D
"D"D4|D2D3/2D/2+breath+|" A"E4| E2 D3/2E/2+breath+|" F#m"F2E2|"Bm"D4+breath+|
"G"G2D3/2E/2|"Bm"F3D+breath+|" D/F#"A4|"Gmaj7"F2GE|"Asus4"D4|"A"E3 A+breath+|
"G"(B4|B4)|D2D3/2E/2|"D/F#"F2F3/2G/2|"A/E"A2AB|"G/D"(d4|d4)+breath+
|"G"B2AG|"Em"E2GF|"A"E2C2|"D"(D4|D4)|] 
